PH Engine/Contents/CUBE/Zeke.CUBE
#Generated with IWLTBAP LUT Generator
#Website: http://luts.iwltbap.com
TITLE "test lut"
#LUT size
LUT_3D_SIZE 64
#LUT data points
0.196078 0.007843 0.007843
0.200000 0.007843 0.007843
0.207843 0.007843 0.007843
0.215686 0.007843 0.007843
0.223529 0.007843 0.007843
0.231373 0.007843 0.007843
0.235294 0.007843 0.007843
0.243137 0.007843 0.007843
0.250980 0.007843 0.007843
0.254902 0.007843 0.007843
0.262745 0.007843 0.007843
0.270588 0.007843 0.007843
0.278431 0.007843 0.007843
0.286275 0.007843 0.007843
0.290196 0.007843 0.007843
0.298039 0.007843 0.007843
0.305882 0.007843 0.007843
0.313725 0.007843 0.007843
0.317647 0.007843 0.007843
0.325490 0.007843 0.007843
0.333333 0.007843 0.007843
0.341176 0.007843 0.007843
0.345098 0.007843 0.007843
0.352941 0.007843 0.007843
0.360784 0.007843 0.007843
0.368627 0.007843 0.007843
0.372549 0.007843 0.007843
0.384314 0.007843 0.007843
0.388235 0.007843 0.007843
0.396078 0.007843 0.007843
0.400000 0.007843 0.007843
0.407843 0.007843 0.007843
0.415686 0.007843 0.007843
0.423529 0.007843 0.007843
0.431373 0.007843 0.007843
0.435294 0.007843 0.007843
0.447059 0.007843 0.007843
0.450980 0.007843 0.007843
0.458824 0.007843 0.007843
0.462745 0.007843 0.007843
0.470588 0.007843 0.007843
0.478431 0.007843 0.007843
0.482353 0.007843 0.007843
0.494118 0.007843 0.007843
0.498039 0.007843 0.007843
0.505882 0.007843 0.007843
0.509804 0.007843 0.007843
0.517647 0.007843 0.007843
0.521569 0.007843 0.007843
0.529412 0.007843 0.007843
0.533333 0.007843 0.007843
0.545098 0.007843 0.007843
0.549020 0.007843 0.007843
0.560784 0.007843 0.007843
0.564706 0.007843 0.007843
0.572549 0.007843 0.007843
0.580392 0.007843 0.007843
0.588235 0.007843 0.007843
0.592157 0.007843 0.007843
0.600000 0.007843 0.007843
0.607843 0.007843 0.007843
0.611765 0.007843 0.007843
0.615686 0.007843 0.007843
0.623529 0.007843 0.007843
0.196078 0.011765 0.007843
0.200000 0.011765 0.007843
0.207843 0.011765 0.007843
0.211765 0.011765 0.007843
0.223529 0.011765 0.007843
0.227451 0.011765 0.007843
0.231373 0.011765 0.003922
0.239216 0.011765 0.003922
0.247059 0.011765 0.003922
0.254902 0.011765 0.003922
0.258824 0.011765 0.003922
0.266667 0.011765 0.003922
0.274510 0.011765 0.003922
0.282353 0.011765 0.003922
0.286275 0.011765 0.003922
0.294118 0.011765 0.003922
0.301961 0.011765 0.003922
0.305882 0.011765 0.003922
0.313725 0.011765 0.003922
0.317647 0.011765 0.003922
0.325490 0.011765 0.003922
0.333333 0.011765 0.003922
0.337255 0.011765 0.003922
0.341176 0.011765 0.003922
0.349020 0.011765 0.003922
0.356863 0.011765 0.003922
0.360784 0.011765 0.003922
0.368627 0.011765 0.003922
0.376471 0.011765 0.003922
0.380392 0.011765 0.003922
0.388235 0.011765 0.003922
0.396078 0.011765 0.003922
0.400000 0.011765 0.003922
0.407843 0.011765 0.003922
0.411765 0.011765 0.003922
0.415686 0.011765 0.003922
0.423529 0.011765 0.003922
0.431373 0.011765 0.003922
0.435294 0.011765 0.003922
0.439216 0.011765 0.003922
0.447059 0.011765 0.003922
0.450980 0.011765 0.003922
0.458824 0.011765 0.003922
0.466667 0.011765 0.003922
0.466667 0.011765 0.003922
0.474510 0.011765 0.003922
0.478431 0.011765 0.003922
0.486275 0.011765 0.003922
0.490196 0.011765 0.003922
0.494118 0.011765 0.003922
0.498039 0.011765 0.003922
0.505882 0.011765 0.003922
0.509804 0.011765 0.003922
0.517647 0.011765 0.003922
0.521569 0.011765 0.003922
0.529412 0.011765 0.003922
0.533333 0.011765 0.003922
0.537255 0.011765 0.003922
0.541176 0.011765 0.003922
0.549020 0.011765 0.003922
0.556863 0.011765 0.003922
0.564706 0.011765 0.003922
0.572549 0.011765 0.003922
0.580392 0.011765 0.003922
0.184314 0.019608 0.003922
0.188235 0.019608 0.003922
0.196078 0.019608 0.003922
0.200000 0.019608 0.003922
0.211765 0.019608 0.003922
0.215686 0.019608 0.003922
0.223529 0.019608 0.003922
0.227451 0.019608 0.003922
0.239216 0.019608 0.003922
0.243137 0.019608 0.003922
0.250980 0.019608 0.003922
0.258824 0.019608 0.003922
0.266667 0.019608 0.003922
0.274510 0.019608 0.003922
0.282353 0.019608 0.003922
0.290196 0.019608 0.003922
0.298039 0.019608 0.003922
0.305882 0.019608 0.003922
0.309804 0.019608 0.003922
0.317647 0.019608 0.003922
0.329412 0.019608 0.003922
0.333333 0.019608 0.003922
0.341176 0.019608 0.003922
0.349020 0.019608 0.003922
0.356863 0.019608 0.003922
0.364706 0.019608 0.007843
0.368627 0.019608 0.007843
0.380392 0.019608 0.007843
0.388235 0.019608 0.007843
0.396078 0.019608 0.007843
0.403922 0.019608 0.007843
0.411765 0.019608 0.007843
0.419608 0.019608 0.007843
0.427451 0.019608 0.007843
0.435294 0.019608 0.007843
0.443137 0.019608 0.007843
0.450980 0.019608 0.007843
0.458824 0.019608 0.007843
0.466667 0.019608 0.007843
0.474510 0.019608 0.007843
0.486275 0.019608 0.007843
0.494118 0.019608 0.007843
0.498039 0.019608 0.007843
0.509804 0.019608 0.007843
0.517647 0.023529 0.007843
0.521569 0.023529 0.007843
0.533333 0.023529 0.007843
0.541176 0.023529 0.007843
0.549020 0.023529 0.007843
0.556863 0.023529 0.007843
0.560784 0.023529 0.007843
0.576471 0.023529 0.007843
0.580392 0.023529 0.007843
0.592157 0.023529 0.007843
0.600000 0.023529 0.007843
0.607843 0.023529 0.007843
0.619608 0.023529 0.007843
0.627451 0.023529 0.007843
0.631373 0.023529 0.007843
0.643137 0.023529 0.007843
0.650980 0.023529 0.007843
0.658824 0.023529 0.007843
0.666667 0.023529 0.007843
0.674510 0.023529 0.007843
0.211765 0.027451 0.007843
0.219608 0.027451 0.007843
0.227451 0.027451 0.007843
0.231373 0.027451 0.007843
0.243137 0.027451 0.007843
0.250980 0.027451 0.007843
0.258824 0.027451 0.007843
0.262745 0.027451 0.007843
0.274510 0.027451 0.007843
0.282353 0.027451 0.007843
0.286275 0.027451 0.007843
0.298039 0.027451 0.007843
0.305882 0.031373 0.007843
0.313725 0.031373 0.007843
0.321569 0.031373 0.007843
0.329412 0.031373 0.007843
0.341176 0.031373 0.007843
0.345098 0.031373 0.007843
0.352941 0.031373 0.007843
0.360784 0.031373 0.007843
0.372549 0.031373 0.007843
0.376471 0.031373 0.007843
0.384314 0.031373 0.007843
0.392157 0.031373 0.007843
0.403922 0.031373 0.007843
0.411765 0.031373 0.007843
0.419608 0.031373 0.007843
0.427451 0.031373 0.007843
0.435294 0.031373 0.007843
0.443137 0.031373 0.007843
0.450980 0.031373 0.007843
0.458824 0.031373 0.007843
0.466667 0.031373 0.007843
0.478431 0.031373 0.007843
0.486275 0.031373 0.007843
0.494118 0.031373 0.007843
0.501961 0.031373 0.007843
0.509804 0.031373 0.007843
0.517647 0.031373 0.007843
0.525490 0.031373 0.007843
0.533333 0.031373 0.007843
0.545098 0.031373 0.007843
0.552941 0.031373 0.007843
0.560784 0.031373 0.007843
0.568627 0.031373 0.007843
0.576471 0.031373 0.007843
0.584314 0.031373 0.007843
0.596078 0.031373 0.007843
0.600000 0.031373 0.007843
0.607843 0.031373 0.007843
0.619608 0.031373 0.007843
0.627451 0.031373 0.007843
0.635294 0.031373 0.007843
0.647059 0.031373 0.007843
0.654902 0.031373 0.007843
0.662745 0.031373 0.007843
0.674510 0.031373 0.007843
0.678431 0.031373 0.007843
0.686275 0.031373 0.007843
0.698039 0.031373 0.007843
0.705882 0.031373 0.007843
0.713725 0.031373 0.007843
0.721569 0.031373 0.007843
0.733333 0.031373 0.007843
0.231373 0.039216 0.007843
0.235294 0.039216 0.007843
0.243137 0.039216 0.007843
0.250980 0.039216 0.007843
0.262745 0.039216 0.007843
0.270588 0.039216 0.007843
0.274510 0.039216 0.007843
0.282353 0.039216 0.007843
0.294118 0.039216 0.007843
0.301961 0.039216 0.007843
0.309804 0.039216 0.007843
0.317647 0.039216 0.007843
0.325490 0.039216 0.007843
0.337255 0.039216 0.007843
0.345098 0.039216 0.007843
0.352941 0.039216 0.007843
0.364706 0.039216 0.007843
0.368627 0.039216 0.007843
0.376471 0.039216 0.007843
0.384314 0.039216 0.007843
0.396078 0.039216 0.007843
0.403922 0.039216 0.007843
0.411765 0.039216 0.007843
0.419608 0.039216 0.007843
0.427451 0.039216 0.007843
0.439216 0.039216 0.007843
0.443137 0.039216 0.007843
0.454902 0.039216 0.007843
0.462745 0.039216 0.007843
0.470588 0.039216 0.007843
0.474510 0.039216 0.007843
0.486275 0.039216 0.007843
0.498039 0.039216 0.007843
0.505882 0.039216 0.007843
0.513725 0.039216 0.007843
0.521569 0.039216 0.007843
0.533333 0.039216 0.007843
0.541176 0.039216 0.007843
0.549020 0.039216 0.007843
0.556863 0.039216 0.007843
0.564706 0.039216 0.007843
0.572549 0.039216 0.007843
0.580392 0.039216 0.007843
0.592157 0.039216 0.007843
0.600000 0.039216 0.007843
0.607843 0.039216 0.007843
0.615686 0.039216 0.007843
0.627451 0.039216 0.007843
0.635294 0.039216 0.007843
0.643137 0.039216 0.007843
0.650980 0.039216 0.007843
0.662745 0.039216 0.007843
0.670588 0.039216 0.007843
0.678431 0.039216 0.007843
0.686275 0.039216 0.007843
0.694118 0.039216 0.007843
0.705882 0.039216 0.007843
0.713725 0.039216 0.007843
0.721569 0.039216 0.007843
0.729412 0.039216 0.007843
0.741176 0.039216 0.007843
0.749020 0.039216 0.007843
0.756863 0.039216 0.007843
0.768627 0.039216 0.007843
0.239216 0.050980 0.007843
0.247059 0.050980 0.007843
0.254902 0.050980 0.007843
0.262745 0.050980 0.007843
0.274510 0.050980 0.007843
0.282353 0.050980 0.007843
0.290196 0.050980 0.007843
0.298039 0.050980 0.007843
0.305882 0.050980 0.007843
0.313725 0.050980 0.007843
0.321569 0.050980 0.007843
0.333333 0.050980 0.007843
0.341176 0.050980 0.007843
0.352941 0.050980 0.007843
0.360784 0.050980 0.007843
0.368627 0.050980 0.007843
0.380392 0.050980 0.007843
0.384314 0.050980 0.007843
0.392157 0.050980 0.007843
0.400000 0.050980 0.007843
0.411765 0.050980 0.007843
0.419608 0.050980 0.007843
0.427451 0.050980 0.007843
0.435294 0.050980 0.007843
0.447059 0.050980 0.007843
0.454902 0.050980 0.007843
0.462745 0.050980 0.007843
0.474510 0.050980 0.007843
0.478431 0.050980 0.007843
0.486275 0.050980 0.007843
0.494118 0.050980 0.007843
0.505882 0.050980 0.007843
0.513725 0.050980 0.007843
0.525490 0.050980 0.007843
0.533333 0.050980 0.007843
0.541176 0.050980 0.007843
0.552941 0.050980 0.007843
0.560784 0.050980 0.007843
0.568627 0.050980 0.007843
0.576471 0.050980 0.007843
0.584314 0.050980 0.007843
0.592157 0.050980 0.007843
0.600000 0.050980 0.007843
0.611765 0.050980 0.007843
0.619608 0.050980 0.007843
0.627451 0.050980 0.007843
0.635294 0.050980 0.007843
0.647059 0.050980 0.007843
0.654902 0.050980 0.007843
0.662745 0.050980 0.007843
0.670588 0.050980 0.007843
0.682353 0.050980 0.007843
0.690196 0.050980 0.007843
0.698039 0.050980 0.007843
0.705882 0.050980 0.007843
0.713725 0.050980 0.007843
0.729412 0.050980 0.007843
0.737255 0.050980 0.007843
0.745098 0.050980 0.007843
0.752941 0.050980 0.007843
0.760784 0.050980 0.007843
0.768627 0.050980 0.007843
0.776471 0.050980 0.007843
0.788235 0.050980 0.007843
0.247059 0.058824 0.007843
0.254902 0.058824 0.007843
0.262745 0.058824 0.007843
0.270588 0.058824 0.007843
0.282353 0.058824 0.007843
0.286275 0.058824 0.007843
0.298039 0.058824 0.007843
0.305882 0.058824 0.007843
0.313725 0.058824 0.007843
0.321569 0.058824 0.007843
0.329412 0.058824 0.007843
0.341176 0.058824 0.007843
0.349020 0.058824 0.007843
0.360784 0.058824 0.007843
0.368627 0.058824 0.007843
0.376471 0.058824 0.007843
0.388235 0.058824 0.007843
0.396078 0.058824 0.007843
0.400000 0.058824 0.007843
0.407843 0.058824 0.007843
0.419608 0.058824 0.007843
0.427451 0.058824 0.007843
0.435294 0.058824 0.007843
0.443137 0.058824 0.007843
0.454902 0.058824 0.007843
0.462745 0.058824 0.007843
0.470588 0.058824 0.007843
0.482353 0.058824 0.007843
0.486275 0.058824 0.007843
0.494118 0.058824 0.007843
0.501961 0.058824 0.007843
0.513725 0.058824 0.007843
0.521569 0.058824 0.007843
0.533333 0.058824 0.007843
0.541176 0.058824 0.007843
0.549020 0.058824 0.007843
0.560784 0.058824 0.007843
0.568627 0.058824 0.007843
0.576471 0.058824 0.007843
0.584314 0.058824 0.007843
0.596078 0.058824 0.007843
0.603922 0.058824 0.007843
0.611765 0.058824 0.007843
0.623529 0.058824 0.007843
0.627451 0.058824 0.007843
0.635294 0.058824 0.007843
0.643137 0.058824 0.007843
0.654902 0.058824 0.007843
0.662745 0.058824 0.007843
0.670588 0.058824 0.007843
0.678431 0.058824 0.007843
0.690196 0.058824 0.007843
0.698039 0.058824 0.007843
0.709804 0.058824 0.007843
0.717647 0.058824 0.007843
0.725490 0.058824 0.007843
0.733333 0.058824 0.007843
0.741176 0.058824 0.007843
0.749020 0.058824 0.007843
0.756863 0.058824 0.007843
0.768627 0.058824 0.007843
0.776471 0.058824 0.007843
0.784314 0.058824 0.007843
0.796078 0.058824 0.007843
0.247059 0.066667 0.007843
0.254902 0.066667 0.007843
0.262745 0.066667 0.007843
0.270588 0.066667 0.007843
0.282353 0.066667 0.007843
0.290196 0.066667 0.007843
0.298039 0.066667 0.007843
0.305882 0.066667 0.007843
0.317647 0.066667 0.007843
0.325490 0.066667 0.007843
0.333333 0.066667 0.007843
0.341176 0.066667 0.007843
0.349020 0.066667 0.007843
0.360784 0.066667 0.007843
0.368627 0.066667 0.007843
0.376471 0.066667 0.007843
0.388235 0.066667 0.007843
0.396078 0.066667 0.007843
0.403922 0.066667 0.007843
0.411765 0.066667 0.007843
0.423529 0.066667 0.007843
0.431373 0.066667 0.007843
0.435294 0.066667 0.007843
0.443137 0.066667 0.007843
0.454902 0.066667 0.007843
0.462745 0.066667 0.007843
0.470588 0.066667 0.007843
0.482353 0.066667 0.007843
0.486275 0.066667 0.007843
0.494118 0.066667 0.007843
0.501961 0.066667 0.007843
0.513725 0.066667 0.007843
0.521569 0.066667 0.007843
0.533333 0.066667 0.007843
0.541176 0.066667 0.007843
0.549020 0.066667 0.007843
0.560784 0.066667 0.007843
0.568627 0.066667 0.007843
0.572549 0.066667 0.007843
0.580392 0.066667 0.007843
0.592157 0.066667 0.007843
0.600000 0.066667 0.007843
0.607843 0.066667 0.007843
0.619608 0.066667 0.007843
0.627451 0.066667 0.007843
0.635294 0.066667 0.007843
0.643137 0.066667 0.007843
0.654902 0.066667 0.007843
0.658824 0.066667 0.007843
0.666667 0.066667 0.007843
0.674510 0.066667 0.007843
0.686275 0.066667 0.007843
0.690196 0.066667 0.007843
0.701961 0.066667 0.007843
0.709804 0.066667 0.007843
0.717647 0.066667 0.007843
0.729412 0.066667 0.007843
0.737255 0.066667 0.007843
0.745098 0.066667 0.007843
0.752941 0.066667 0.007843
0.760784 0.066667 0.007843
0.768627 0.066667 0.007843
0.776471 0.066667 0.007843
0.784314 0.066667 0.007843
0.196078 0.058824 0.007843
0.203922 0.058824 0.007843
0.207843 0.058824 0.007843
0.215686 0.058824 0.007843
0.223529 0.058824 0.007843
0.231373 0.058824 0.007843
0.235294 0.058824 0.007843
0.243137 0.058824 0.007843
0.250980 0.058824 0.007843
0.254902 0.058824 0.007843
0.262745 0.058824 0.007843
0.270588 0.058824 0.007843
0.278431 0.058824 0.007843
0.286275 0.058824 0.007843
0.294118 0.058824 0.007843
0.298039 0.058824 0.007843
0.309804 0.058824 0.007843
0.313725 0.058824 0.007843
0.321569 0.058824 0.007843
0.325490 0.058824 0.007843
0.333333 0.058824 0.007843
0.341176 0.058824 0.007843
0.345098 0.058824 0.007843
0.352941 0.058824 0.007843
0.360784 0.058824 0.007843
0.368627 0.058824 0.007843
0.372549 0.058824 0.007843
0.384314 0.058824 0.007843
0.388235 0.058824 0.007843
0.396078 0.058824 0.007843
0.400000 0.058824 0.007843
0.407843 0.058824 0.007843
0.415686 0.058824 0.007843
0.423529 0.058824 0.007843
0.431373 0.058824 0.007843
0.435294 0.058824 0.007843
0.447059 0.058824 0.007843
0.450980 0.058824 0.007843
0.458824 0.058824 0.007843
0.462745 0.058824 0.007843
0.470588 0.058824 0.007843
0.478431 0.058824 0.007843
0.482353 0.058824 0.007843
0.494118 0.058824 0.007843
0.498039 0.058824 0.007843
0.505882 0.058824 0.007843
0.509804 0.058824 0.007843
0.521569 0.058824 0.007843
0.525490 0.058824 0.007843
0.533333 0.058824 0.007843
0.537255 0.058824 0.007843
0.545098 0.058824 0.007843
0.552941 0.058824 0.007843
0.560784 0.058824 0.007843
0.568627 0.058824 0.007843
0.576471 0.058824 0.007843
0.584314 0.058824 0.007843
0.588235 0.058824 0.007843
0.592157 0.058824 0.007843
0.600000 0.058824 0.007843
0.607843 0.058824 0.007843
0.611765 0.058824 0.007843
0.619608 0.058824 0.007843
0.627451 0.058824 0.007843
0.196078 0.066667 0.007843
0.203922 0.066667 0.007843
0.207843 0.066667 0.007843
0.211765 0.066667 0.007843
0.223529 0.066667 0.007843
0.227451 0.066667 0.007843
0.235294 0.066667 0.007843
0.239216 0.066667 0.007843
0.247059 0.066667 0.007843
0.254902 0.066667 0.007843
0.258824 0.066667 0.003922
0.266667 0.066667 0.003922
0.274510 0.066667 0.003922
0.282353 0.066667 0.003922
0.290196 0.066667 0.003922
0.294118 0.066667 0.003922
0.301961 0.066667 0.003922
0.305882 0.066667 0.003922
0.313725 0.066667 0.003922
0.317647 0.066667 0.003922
0.329412 0.066667 0.003922
0.333333 0.066667 0.003922
0.337255 0.066667 0.003922
0.345098 0.066667 0.003922
0.352941 0.066667 0.003922
0.356863 0.066667 0.003922
0.360784 0.066667 0.003922
0.372549 0.066667 0.003922
0.376471 0.066667 0.003922
0.380392 0.066667 0.003922
0.388235 0.066667 0.003922
0.396078 0.066667 0.003922
0.400000 0.066667 0.003922
0.407843 0.066667 0.003922
0.411765 0.066667 0.003922
0.419608 0.066667 0.003922
0.427451 0.066667 0.003922
0.431373 0.066667 0.003922
0.435294 0.066667 0.003922
0.439216 0.066667 0.003922
0.447059 0.066667 0.003922
0.454902 0.066667 0.003922
0.458824 0.066667 0.003922
0.466667 0.066667 0.003922
0.470588 0.066667 0.003922
0.474510 0.062745 0.003922
0.478431 0.062745 0.003922
0.486275 0.062745 0.003922
0.490196 0.062745 0.003922
0.498039 0.062745 0.003922
0.498039 0.062745 0.003922
0.505882 0.062745 0.003922
0.509804 0.062745 0.003922
0.517647 0.062745 0.003922
0.521569 0.062745 0.003922
0.529412 0.062745 0.003922
0.537255 0.062745 0.003922
0.537255 0.062745 0.003922
0.545098 0.062745 0.003922
0.545098 0.062745 0.003922
0.556863 0.062745 0.003922
0.564706 0.062745 0.003922
0.572549 0.062745 0.003922
0.580392 0.062745 0.003922
0.184314 0.070588 0.003922
0.188235 0.070588 0.003922
0.196078 0.070588 0.003922
0.200000 0.070588 0.003922
0.211765 0.070588 0.003922
0.215686 0.070588 0.003922
0.223529 0.070588 0.003922
0.227451 0.070588 0.003922
0.239216 0.070588 0.003922
0.243137 0.070588 0.003922
0.250980 0.070588 0.003922
0.258824 0.070588 0.003922
0.266667 0.070588 0.003922
0.274510 0.070588 0.003922
0.282353 0.070588 0.003922
0.290196 0.070588 0.003922
0.298039 0.070588 0.003922
0.305882 0.070588 0.003922
0.309804 0.070588 0.003922
0.317647 0.074510 0.003922
0.325490 0.074510 0.003922
0.333333 0.074510 0.003922
0.341176 0.074510 0.003922
0.349020 0.074510 0.003922
0.356863 0.074510 0.003922
0.364706 0.074510 0.007843
0.368627 0.074510 0.007843
0.380392 0.074510 0.007843
0.388235 0.074510 0.007843
0.396078 0.074510 0.007843
0.400000 0.074510 0.007843
0.411765 0.074510 0.007843
0.419608 0.074510 0.007843
0.427451 0.074510 0.007843
0.435294 0.074510 0.007843
0.439216 0.074510 0.007843
0.450980 0.074510 0.007843
0.458824 0.074510 0.007843
0.466667 0.074510 0.007843
0.474510 0.074510 0.007843
0.486275 0.078431 0.007843
0.490196 0.078431 0.007843
0.498039 0.078431 0.007843
0.509804 0.078431 0.007843
0.513725 0.078431 0.007843
0.521569 0.078431 0.007843
0.529412 0.078431 0.007843
0.541176 0.078431 0.007843
0.549020 0.078431 0.007843
0.556863 0.078431 0.007843
0.560784 0.078431 0.007843
0.576471 0.078431 0.007843
0.580392 0.078431 0.007843
0.592157 0.078431 0.007843
0.600000 0.078431 0.007843
0.607843 0.078431 0.007843
0.615686 0.078431 0.007843
0.627451 0.078431 0.007843
0.631373 0.078431 0.007843
0.643137 0.078431 0.007843
0.650980 0.078431 0.007843
0.658824 0.078431 0.007843
0.666667 0.078431 0.007843
0.674510 0.078431 0.007843
0.211765 0.090196 0.007843
0.219608 0.090196 0.007843
0.227451 0.090196 0.007843
0.231373 0.090196 0.007843
0.243137 0.090196 0.007843
0.250980 0.090196 0.007843
0.254902 0.090196 0.007843
0.262745 0.090196 0.007843
0.274510 0.090196 0.007843
0.278431 0.090196 0.007843
0.286275 0.090196 0.007843
0.298039 0.090196 0.007843
0.305882 0.090196 0.007843
0.313725 0.090196 0.007843
0.321569 0.090196 0.007843
0.329412 0.090196 0.007843
0.337255 0.090196 0.007843
0.345098 0.090196 0.007843
0.352941 0.090196 0.007843
0.360784 0.090196 0.007843
0.372549 0.094118 0.007843
0.376471 0.094118 0.007843
0.384314 0.094118 0.007843
0.392157 0.094118 0.007843
0.403922 0.094118 0.007843
0.407843 0.094118 0.007843
0.419608 0.094118 0.007843
0.427451 0.094118 0.007843
0.435294 0.094118 0.007843
0.439216 0.094118 0.007843
0.450980 0.094118 0.007843
0.458824 0.094118 0.007843
0.466667 0.094118 0.007843
0.478431 0.094118 0.007843
0.486275 0.094118 0.007843
0.494118 0.094118 0.007843
0.501961 0.094118 0.007843
0.509804 0.094118 0.007843
0.517647 0.094118 0.007843
0.525490 0.094118 0.007843
0.533333 0.094118 0.007843
0.541176 0.094118 0.007843
0.552941 0.094118 0.007843
0.560784 0.094118 0.007843
0.568627 0.094118 0.007843
0.576471 0.094118 0.007843
0.584314 0.094118 0.007843
0.596078 0.094118 0.007843
0.600000 0.094118 0.007843
0.607843 0.094118 0.007843
0.615686 0.094118 0.007843
0.627451 0.094118 0.007843
0.635294 0.094118 0.007843
0.647059 0.094118 0.007843
0.650980 0.094118 0.007843
0.662745 0.098039 0.007843
0.674510 0.098039 0.007843
0.678431 0.098039 0.007843
0.686275 0.098039 0.007843
0.694118 0.098039 0.007843
0.705882 0.098039 0.007843
0.713725 0.098039 0.007843
0.721569 0.098039 0.007843
0.729412 0.098039 0.007843
0.231373 0.105882 0.007843
0.235294 0.105882 0.007843
0.243137 0.105882 0.007843
0.250980 0.105882 0.007843
0.262745 0.105882 0.007843
0.266667 0.105882 0.007843
0.274510 0.105882 0.007843
0.282353 0.105882 0.007843
0.294118 0.105882 0.007843
0.301961 0.105882 0.007843
0.305882 0.105882 0.007843
0.317647 0.105882 0.007843
0.325490 0.105882 0.007843
0.337255 0.105882 0.007843
0.345098 0.105882 0.007843
0.352941 0.105882 0.007843
0.364706 0.105882 0.007843
0.368627 0.105882 0.007843
0.376471 0.105882 0.007843
0.384314 0.105882 0.007843
0.396078 0.105882 0.007843
0.403922 0.105882 0.007843
0.411765 0.105882 0.007843
0.419608 0.105882 0.007843
0.427451 0.105882 0.007843
0.439216 0.105882 0.007843
0.443137 0.105882 0.007843
0.454902 0.105882 0.007843
0.462745 0.105882 0.007843
0.470588 0.105882 0.007843
0.474510 0.105882 0.007843
0.486275 0.105882 0.007843
0.498039 0.105882 0.007843
0.505882 0.105882 0.007843
0.513725 0.105882 0.007843
0.521569 0.105882 0.007843
0.533333 0.105882 0.007843
0.537255 0.105882 0.007843
0.549020 0.105882 0.007843
0.556863 0.105882 0.007843
0.564706 0.105882 0.007843
0.572549 0.105882 0.007843
0.580392 0.105882 0.007843
0.592157 0.109804 0.007843
0.600000 0.109804 0.007843
0.607843 0.109804 0.007843
0.615686 0.109804 0.007843
0.627451 0.109804 0.007843
0.635294 0.109804 0.007843
0.643137 0.109804 0.007843
0.650980 0.109804 0.007843
0.662745 0.109804 0.007843
0.670588 0.109804 0.007843
0.678431 0.109804 0.007843
0.686275 0.109804 0.007843
0.694118 0.109804 0.007843
0.705882 0.109804 0.007843
0.713725 0.109804 0.007843
0.721569 0.109804 0.007843
0.729412 0.109804 0.007843
0.741176 0.109804 0.007843
0.749020 0.109804 0.007843
0.756863 0.109804 0.007843
0.764706 0.109804 0.007843
0.239216 0.117647 0.007843
0.247059 0.117647 0.007843
0.254902 0.117647 0.007843
0.262745 0.117647 0.007843
0.274510 0.117647 0.007843
0.282353 0.117647 0.007843
0.286275 0.117647 0.007843
0.298039 0.117647 0.007843
0.305882 0.117647 0.007843
0.313725 0.117647 0.007843
0.321569 0.117647 0.007843
0.333333 0.117647 0.007843
0.341176 0.117647 0.007843
0.352941 0.117647 0.007843
0.360784 0.117647 0.007843
0.368627 0.117647 0.007843
0.380392 0.117647 0.007843
0.384314 0.117647 0.007843
0.392157 0.117647 0.007843
0.400000 0.117647 0.007843
0.411765 0.117647 0.007843
0.419608 0.117647 0.007843
0.427451 0.117647 0.007843
0.435294 0.117647 0.007843
0.447059 0.117647 0.007843
0.454902 0.117647 0.007843
0.462745 0.117647 0.007843
0.474510 0.117647 0.007843
0.478431 0.117647 0.007843
0.486275 0.117647 0.007843
0.494118 0.117647 0.007843
0.505882 0.117647 0.007843
0.513725 0.117647 0.007843
0.525490 0.117647 0.007843
0.533333 0.117647 0.007843
0.541176 0.117647 0.007843
0.552941 0.117647 0.007843
0.560784 0.117647 0.007843
0.568627 0.117647 0.007843
0.576471 0.117647 0.007843
0.584314 0.117647 0.007843
0.592157 0.117647 0.007843
0.600000 0.117647 0.007843
0.611765 0.117647 0.007843
0.623529 0.117647 0.007843
0.627451 0.117647 0.007843
0.635294 0.117647 0.007843
0.647059 0.117647 0.007843
0.654902 0.117647 0.007843
0.662745 0.117647 0.007843
0.670588 0.117647 0.007843
0.682353 0.117647 0.007843
