PH Engine/Contents/CUBE/Zeke.CUBE
#Generated with IWLTBAP LUT Generator
#Website: http://luts.iwltbap.com
TITLE "test lut"
#LUT size
LUT_3D_SIZE 4
#LUT data points
0.196078 0.007843 0.007843
0.341176 0.007843 0.007843
0.482353 0.007843 0.007843
0.623529 0.007843 0.007843
0.239216 0.180392 0.007843
0.419608 0.184314 0.007843
0.600000 0.184314 0.007843
0.788235 0.188235 0.007843
0.180392 0.270588 0.003922
0.333333 0.290196 0.003922
0.498039 0.301961 0.007843
0.674510 0.317647 0.007843
0.250980 0.556863 0.007843
0.431373 0.556863 0.007843
0.611765 0.552941 0.007843
0.792157 0.552941 0.007843
0.254902 0.007843 0.192157
0.439216 0.007843 0.192157
0.619608 0.007843 0.192157
0.792157 0.007843 0.188235
0.192157 0.145098 0.145098
0.341176 0.149020 0.149020
0.505882 0.156863 0.156863
0.698039 0.164706 0.164706
0.211765 0.317647 0.160784
0.341176 0.298039 0.149020
0.466667 0.286275 0.145098
0.592157 0.278431 0.141176
0.250980 0.560784 0.192157
0.443137 0.568627 0.192157
0.631373 0.572549 0.196078
0.819608 0.572549 0.196078
0.254902 0.007843 0.384314
0.443137 0.007843 0.384314
0.627451 0.007843 0.384314
0.803922 0.007843 0.376471
0.184314 0.141176 0.278431
0.329412 0.145098 0.286275
0.486275 0.149020 0.298039
0.674510 0.160784 0.317647
0.219608 0.329412 0.329412
0.356863 0.309804 0.309804
0.482353 0.298039 0.298039
0.607843 0.286275 0.286275
0.247059 0.552941 0.372549
0.435294 0.564706 0.380392
0.623529 0.568627 0.380392
0.815686 0.568627 0.380392
0.247059 0.007843 0.552941
0.431373 0.007843 0.552941
0.611765 0.007843 0.556863
0.800000 0.007843 0.556863
0.211765 0.160784 0.470588
0.349020 0.152941 0.450980
0.470588 0.145098 0.427451
0.576471 0.137255 0.400000
0.247059 0.368627 0.549020
0.423529 0.368627 0.545098
0.596078 0.364706 0.541176
0.768627 0.360784 0.537255
0.196078 0.435294 0.435294
0.341176 0.439216 0.439216
0.482353 0.439216 0.439216
0.623529 0.435294 0.435294
