PH Engine/Contents/CUBE/Zeke.CUBE
#Generated with IWLTBAP LUT Generator
#Website: http://luts.iwltbap.com
TITLE "test lut"
#LUT size
LUT_3D_SIZE 8
#LUT data points
0.196078 0.007843 0.007843
0.254902 0.007843 0.007843
0.317647 0.007843 0.007843
0.384314 0.007843 0.007843
0.447059 0.007843 0.007843
0.505882 0.007843 0.007843
0.564706 0.007843 0.007843
0.623529 0.007843 0.007843
0.196078 0.066667 0.007843
0.254902 0.066667 0.007843
0.313725 0.066667 0.003922
0.372549 0.066667 0.003922
0.427451 0.066667 0.003922
0.474510 0.062745 0.003922
0.521569 0.062745 0.003922
0.580392 0.062745 0.003922
0.180392 0.121569 0.003922
0.243137 0.125490 0.003922
0.309804 0.125490 0.003922
0.380392 0.129412 0.007843
0.450980 0.133333 0.007843
0.521569 0.137255 0.007843
0.600000 0.137255 0.007843
0.674510 0.141176 0.007843
0.211765 0.203922 0.007843
0.278431 0.207843 0.007843
0.352941 0.211765 0.007843
0.427451 0.211765 0.007843
0.501961 0.215686 0.007843
0.576471 0.219608 0.007843
0.650980 0.219608 0.007843
0.729412 0.223529 0.007843
0.227451 0.294118 0.007843
0.301961 0.298039 0.007843
0.376471 0.298039 0.007843
0.454902 0.301961 0.007843
0.533333 0.301961 0.007843
0.607843 0.305882 0.007843
0.686275 0.305882 0.007843
0.764706 0.309804 0.007843
0.239216 0.384314 0.007843
0.313725 0.388235 0.007843
0.392157 0.388235 0.007843
0.474510 0.392157 0.007843
0.552941 0.392157 0.007843
0.627451 0.396078 0.007843
0.709804 0.396078 0.007843
0.792157 0.396078 0.007843
0.247059 0.478431 0.007843
0.321569 0.478431 0.007843
0.403922 0.478431 0.007843
0.482353 0.478431 0.007843
0.564706 0.482353 0.007843
0.639216 0.482353 0.007843
0.717647 0.482353 0.007843
0.800000 0.482353 0.007843
0.250980 0.556863 0.007843
0.325490 0.556863 0.007843
0.403922 0.556863 0.007843
0.486275 0.556863 0.007843
0.564706 0.556863 0.007843
0.635294 0.552941 0.007843
0.717647 0.552941 0.007843
0.792157 0.552941 0.007843
0.239216 0.007843 0.082353
0.309804 0.007843 0.082353
0.388235 0.007843 0.082353
0.466667 0.007843 0.082353
0.541176 0.007843 0.082353
0.611765 0.007843 0.082353
0.682353 0.007843 0.082353
0.756863 0.007843 0.082353
0.235294 0.082353 0.082353
0.305882 0.082353 0.082353
0.372549 0.078431 0.078431
0.439216 0.078431 0.078431
0.501961 0.078431 0.078431
0.552941 0.074510 0.074510
0.603922 0.074510 0.074510
0.654902 0.070588 0.070588
0.203922 0.137255 0.070588
0.258824 0.133333 0.070588
0.313725 0.129412 0.066667
0.364706 0.125490 0.066667
0.415686 0.121569 0.062745
0.462745 0.121569 0.062745
0.517647 0.121569 0.062745
0.588235 0.121569 0.062745
0.184314 0.176471 0.062745
0.243137 0.180392 0.062745
0.301961 0.180392 0.066667
0.368627 0.184314 0.066667
0.431373 0.184314 0.066667
0.494118 0.188235 0.066667
0.560784 0.188235 0.066667
0.627451 0.192157 0.066667
0.196078 0.250980 0.066667
0.258824 0.254902 0.066667
0.321569 0.258824 0.070588
0.392157 0.258824 0.070588
0.458824 0.262745 0.070588
0.529412 0.266667 0.070588
0.603922 0.270588 0.074510
0.678431 0.274510 0.074510
0.211765 0.341176 0.074510
0.282353 0.345098 0.074510
0.352941 0.352941 0.074510
0.431373 0.356863 0.078431
0.509804 0.364706 0.078431
0.592157 0.368627 0.078431
0.674510 0.376471 0.082353
0.764706 0.384314 0.082353
0.239216 0.462745 0.082353
0.317647 0.470588 0.086275
0.400000 0.474510 0.086275
0.482353 0.478431 0.086275
0.564706 0.482353 0.086275
0.643137 0.486275 0.086275
0.729412 0.490196 0.090196
0.815686 0.490196 0.090196
0.254902 0.568627 0.090196
0.333333 0.568627 0.090196
0.415686 0.568627 0.090196
0.498039 0.568627 0.090196
0.576471 0.568627 0.090196
0.654902 0.568627 0.090196
0.737255 0.568627 0.090196
0.819608 0.568627 0.090196
0.254902 0.007843 0.168627
0.329412 0.007843 0.168627
0.411765 0.007843 0.168627
0.490196 0.007843 0.168627
0.568627 0.007843 0.168627
0.643137 0.007843 0.168627
0.717647 0.007843 0.164706
0.792157 0.007843 0.164706
0.247059 0.086275 0.164706
0.317647 0.086275 0.160784
0.388235 0.082353 0.160784
0.454902 0.082353 0.156863
0.517647 0.078431 0.152941
0.568627 0.078431 0.149020
0.623529 0.074510 0.145098
0.674510 0.074510 0.141176
0.211765 0.141176 0.141176
0.266667 0.137255 0.137255
0.321569 0.133333 0.133333
0.376471 0.129412 0.129412
0.431373 0.125490 0.125490
0.482353 0.125490 0.125490
0.537255 0.125490 0.125490
0.588235 0.121569 0.121569
0.184314 0.180392 0.121569
0.239216 0.176471 0.121569
0.294118 0.176471 0.121569
0.349020 0.176471 0.121569
0.407843 0.176471 0.121569
0.462745 0.176471 0.121569
0.525490 0.176471 0.121569
0.588235 0.176471 0.121569
0.184314 0.235294 0.121569
0.239216 0.239216 0.121569
0.301961 0.239216 0.121569
0.360784 0.239216 0.125490
0.423529 0.243137 0.125490
0.486275 0.243137 0.125490
0.549020 0.247059 0.125490
0.619608 0.250980 0.129412
0.192157 0.309804 0.129412
0.254902 0.313725 0.129412
0.321569 0.321569 0.133333
0.392157 0.325490 0.133333
0.466667 0.333333 0.137255
0.541176 0.341176 0.141176
0.623529 0.349020 0.145098
0.709804 0.356863 0.149020
0.223529 0.427451 0.149020
0.298039 0.439216 0.152941
0.380392 0.450980 0.156863
0.466667 0.462745 0.160784
0.549020 0.470588 0.160784
0.635294 0.478431 0.164706
0.717647 0.482353 0.164706
0.807843 0.486275 0.168627
0.250980 0.564706 0.168627
0.329412 0.564706 0.168627
0.415686 0.568627 0.168627
0.498039 0.572549 0.172549
0.580392 0.572549 0.172549
0.658824 0.572549 0.172549
0.741176 0.572549 0.172549
0.819608 0.572549 0.172549
0.254902 0.007843 0.250980
0.333333 0.007843 0.250980
0.415686 0.007843 0.250980
0.498039 0.007843 0.247059
0.576471 0.007843 0.247059
0.650980 0.007843 0.247059
0.725490 0.007843 0.243137
0.800000 0.007843 0.243137
0.247059 0.086275 0.243137
0.321569 0.086275 0.239216
0.392157 0.082353 0.235294
0.458824 0.082353 0.231373
0.521569 0.078431 0.223529
0.576471 0.078431 0.219608
0.627451 0.074510 0.211765
0.678431 0.074510 0.207843
0.211765 0.141176 0.203922
0.266667 0.137255 0.200000
0.325490 0.133333 0.196078
0.380392 0.129412 0.192157
0.435294 0.129412 0.188235
0.486275 0.125490 0.184314
0.541176 0.125490 0.184314
0.596078 0.125490 0.180392
0.188235 0.180392 0.180392
0.239216 0.180392 0.180392
0.298039 0.176471 0.176471
0.352941 0.176471 0.176471
0.407843 0.176471 0.176471
0.462745 0.176471 0.176471
0.517647 0.176471 0.176471
0.576471 0.176471 0.176471
0.180392 0.231373 0.176471
0.235294 0.231373 0.176471
0.294118 0.235294 0.176471
0.352941 0.235294 0.176471
0.411765 0.235294 0.176471
0.470588 0.239216 0.180392
0.537255 0.239216 0.180392
0.600000 0.243137 0.180392
0.188235 0.301961 0.180392
0.247059 0.305882 0.184314
0.309804 0.305882 0.184314
0.376471 0.313725 0.188235
0.447059 0.317647 0.192157
0.517647 0.325490 0.196078
0.596078 0.333333 0.200000
0.682353 0.341176 0.207843
0.215686 0.411765 0.207843
0.286275 0.423529 0.215686
0.368627 0.435294 0.219608
0.450980 0.447059 0.227451
0.537255 0.458824 0.231373
0.619608 0.466667 0.235294
0.709804 0.474510 0.239216
0.800000 0.482353 0.243137
0.250980 0.556863 0.243137
0.329412 0.564706 0.247059
0.411765 0.564706 0.247059
0.498039 0.568627 0.247059
0.580392 0.572549 0.250980
0.658824 0.572549 0.250980
0.741176 0.572549 0.250980
0.819608 0.572549 0.250980
0.254902 0.007843 0.329412
0.333333 0.007843 0.329412
0.415686 0.007843 0.329412
0.498039 0.007843 0.329412
0.576471 0.007843 0.329412
0.650980 0.007843 0.325490
0.729412 0.007843 0.325490
0.800000 0.007843 0.321569
0.250980 0.086275 0.321569
0.321569 0.086275 0.317647
0.392157 0.086275 0.313725
0.462745 0.082353 0.305882
0.525490 0.082353 0.298039
0.580392 0.078431 0.290196
0.635294 0.078431 0.282353
0.682353 0.074510 0.274510
0.215686 0.141176 0.274510
0.270588 0.137255 0.266667
0.329412 0.133333 0.262745
0.384314 0.133333 0.254902
0.439216 0.129412 0.250980
0.490196 0.125490 0.247059
0.545098 0.125490 0.243137
0.600000 0.125490 0.243137
0.188235 0.180392 0.243137
0.243137 0.180392 0.239216
0.298039 0.180392 0.239216
0.356863 0.176471 0.235294
0.411765 0.176471 0.235294
0.462745 0.176471 0.235294
0.517647 0.176471 0.231373
0.576471 0.176471 0.231373
0.180392 0.231373 0.231373
0.235294 0.231373 0.231373
0.294118 0.231373 0.231373
0.352941 0.235294 0.235294
0.411765 0.235294 0.235294
0.470588 0.235294 0.235294
0.529412 0.239216 0.239216
0.596078 0.239216 0.239216
0.188235 0.298039 0.239216
0.247059 0.301961 0.243137
0.309804 0.305882 0.247059
0.376471 0.309804 0.250980
0.443137 0.313725 0.254902
0.513725 0.321569 0.258824
0.592157 0.329412 0.266667
0.674510 0.341176 0.274510
0.211765 0.407843 0.274510
0.286275 0.419608 0.282353
0.364706 0.431373 0.290196
0.447059 0.443137 0.298039
0.533333 0.454902 0.305882
0.619608 0.466667 0.309804
0.705882 0.474510 0.317647
0.796078 0.478431 0.321569
0.250980 0.556863 0.321569
0.329412 0.560784 0.325490
0.411765 0.564706 0.325490
0.494118 0.568627 0.329412
0.576471 0.568627 0.329412
0.658824 0.572549 0.329412
0.741176 0.572549 0.329412
0.819608 0.572549 0.329412
0.254902 0.007843 0.411765
0.333333 0.007843 0.411765
0.415686 0.007843 0.411765
0.498039 0.007843 0.411765
0.580392 0.007843 0.411765
0.654902 0.007843 0.411765
0.729412 0.007843 0.407843
0.807843 0.007843 0.407843
0.250980 0.086275 0.407843
0.325490 0.086275 0.400000
0.400000 0.086275 0.396078
0.474510 0.086275 0.392157
0.541176 0.082353 0.384314
0.600000 0.082353 0.376471
0.658824 0.078431 0.368627
0.709804 0.078431 0.356863
0.223529 0.149020 0.356863
0.282353 0.145098 0.349020
0.341176 0.141176 0.341176
0.400000 0.137255 0.333333
0.454902 0.133333 0.325490
0.509804 0.133333 0.321569
0.564706 0.129412 0.313725
0.619608 0.129412 0.309804
0.192157 0.188235 0.309804
0.250980 0.184314 0.305882
0.305882 0.184314 0.305882
0.364706 0.180392 0.301961
0.419608 0.180392 0.298039
0.474510 0.180392 0.298039
0.529412 0.180392 0.298039
0.588235 0.176471 0.294118
0.184314 0.235294 0.294118
0.239216 0.235294 0.294118
0.294118 0.235294 0.290196
0.349020 0.231373 0.290196
0.407843 0.231373 0.290196
0.462745 0.235294 0.290196
0.525490 0.235294 0.294118
0.588235 0.239216 0.298039
0.184314 0.298039 0.298039
0.243137 0.298039 0.298039
0.305882 0.301961 0.301961
0.372549 0.305882 0.305882
0.439216 0.313725 0.313725
0.505882 0.317647 0.317647
0.584314 0.325490 0.325490
0.670588 0.337255 0.337255
0.211765 0.403922 0.337255
0.282353 0.415686 0.349020
0.360784 0.427451 0.356863
0.443137 0.439216 0.368627
0.529412 0.450980 0.376471
0.611765 0.462745 0.384314
0.701961 0.470588 0.392157
0.788235 0.474510 0.396078
0.247059 0.552941 0.396078
0.325490 0.556863 0.400000
0.407843 0.560784 0.403922
0.490196 0.560784 0.403922
0.572549 0.564706 0.407843
0.650980 0.564706 0.407843
0.729412 0.564706 0.407843
0.811765 0.564706 0.407843
0.254902 0.007843 0.494118
0.333333 0.007843 0.494118
0.415686 0.007843 0.494118
0.498039 0.007843 0.494118
0.576471 0.007843 0.494118
0.654902 0.007843 0.494118
0.733333 0.007843 0.490196
0.815686 0.007843 0.490196
0.254902 0.090196 0.490196
0.329412 0.090196 0.490196
0.407843 0.086275 0.486275
0.486275 0.086275 0.482353
0.560784 0.086275 0.478431
0.627451 0.086275 0.474510
0.701961 0.086275 0.470588
0.764706 0.082353 0.462745
0.239216 0.160784 0.458824
0.305882 0.156863 0.450980
0.372549 0.152941 0.443137
0.439216 0.149020 0.435294
0.501961 0.149020 0.427451
0.560784 0.145098 0.419608
0.619608 0.145098 0.415686
0.678431 0.141176 0.407843
0.211765 0.207843 0.407843
0.274510 0.203922 0.403922
0.333333 0.200000 0.396078
0.396078 0.196078 0.392157
0.454902 0.196078 0.388235
0.509804 0.192157 0.384314
0.568627 0.192157 0.380392
0.623529 0.188235 0.376471
0.196078 0.254902 0.376471
0.254902 0.250980 0.372549
0.313725 0.247059 0.368627
0.368627 0.247059 0.364706
0.427451 0.243137 0.364706
0.478431 0.243137 0.360784
0.533333 0.239216 0.356863
0.588235 0.235294 0.352941
0.184314 0.294118 0.352941
0.235294 0.290196 0.345098
0.294118 0.290196 0.349020
0.356863 0.298039 0.352941
0.423529 0.301961 0.360784
0.494118 0.309804 0.372549
0.572549 0.317647 0.380392
0.654902 0.329412 0.392157
0.203922 0.392157 0.392157
0.274510 0.403922 0.403922
0.352941 0.415686 0.415686
0.431373 0.427451 0.427451
0.509804 0.435294 0.435294
0.592157 0.443137 0.443137
0.674510 0.450980 0.450980
0.756863 0.454902 0.454902
0.235294 0.525490 0.454902
0.309804 0.529412 0.458824
0.388235 0.533333 0.458824
0.466667 0.533333 0.462745
0.541176 0.533333 0.462745
0.611765 0.533333 0.462745
0.686275 0.533333 0.458824
0.764706 0.533333 0.458824
0.247059 0.007843 0.552941
0.325490 0.007843 0.552941
0.403922 0.007843 0.552941
0.486275 0.007843 0.556863
0.564706 0.007843 0.556863
0.639216 0.007843 0.556863
0.717647 0.007843 0.556863
0.800000 0.007843 0.556863
0.250980 0.086275 0.556863
0.325490 0.086275 0.556863
0.403922 0.086275 0.556863
0.486275 0.086275 0.556863
0.560784 0.086275 0.552941
0.635294 0.086275 0.552941
0.713725 0.086275 0.552941
0.792157 0.086275 0.552941
0.247059 0.164706 0.552941
0.321569 0.164706 0.549020
0.400000 0.164706 0.549020
0.474510 0.164706 0.545098
0.549020 0.160784 0.541176
0.619608 0.160784 0.541176
0.694118 0.160784 0.537255
0.764706 0.160784 0.533333
0.239216 0.231373 0.533333
0.309804 0.231373 0.533333
0.384314 0.231373 0.525490
0.458824 0.227451 0.525490
0.525490 0.227451 0.521569
0.596078 0.227451 0.517647
0.662745 0.223529 0.513725
0.729412 0.223529 0.509804
0.227451 0.294118 0.509804
0.294118 0.290196 0.505882
0.364706 0.290196 0.501961
0.431373 0.286275 0.494118
0.494118 0.282353 0.490196
0.556863 0.278431 0.486275
0.615686 0.278431 0.478431
0.674510 0.274510 0.470588
0.211765 0.341176 0.470588
0.270588 0.333333 0.462745
0.333333 0.329412 0.454902
0.388235 0.321569 0.447059
0.439216 0.313725 0.435294
0.490196 0.305882 0.427451
0.537255 0.298039 0.415686
0.580392 0.290196 0.403922
0.180392 0.349020 0.403922
0.235294 0.349020 0.403922
0.301961 0.356863 0.411765
0.368627 0.364706 0.419608
0.431373 0.368627 0.427451
0.494118 0.372549 0.431373
0.560784 0.376471 0.435294
0.627451 0.376471 0.439216
0.196078 0.435294 0.435294
0.254902 0.439216 0.439216
0.321569 0.439216 0.439216
0.384314 0.439216 0.439216
0.447059 0.439216 0.439216
0.501961 0.439216 0.439216
0.564706 0.439216 0.439216
0.623529 0.435294 0.435294
